core/assets/icons/gamepad.svg

<svg width="24" height="24" viewBox="0 0 24 24" xmlns="http://www.w3.org/2000/svg"><g id="gamepad"><path id="Subtract" fill-rule="evenodd" clip-rule="evenodd" d="M17.2745 4.14856C20.1755 4.14856 22.5491 6.52213 22.5491 9.42316V17.3351C22.5491 19.2771 20.9747 20.8515 19.0327 20.8515C17.0906 20.8515 15.5163 19.2771 15.5163 17.3351H8.48348C8.48348 19.2771 6.90914 20.8515 4.96708 20.8515C3.02503 20.8515 1.45068 19.2771 1.45068 17.3351V9.42316C1.45068 6.52213 3.82425 4.14856 6.72528 4.14856H17.2745ZM7.60438 8.54406H9.36258V10.3023H11.1208V12.0605H9.36258V13.8187H7.60438V12.0605H5.84618V10.3023H7.60438V8.54406ZM14.6372 8.54406H16.3954V10.3023H14.6372V8.54406ZM18.1536 13.8187V12.0605H16.3954V13.8187H18.1536Z"/></g></svg>

<svg xmlns="http://www.w3.org/2000/svg" width="24" height="24" fill="none"><path fill="#191C22" fill-rule="evenodd" d="M17.274 4.149c2.901 0 5.275 2.373 5.275 5.274v7.912a3.516 3.516 0 0 1-7.033 0H8.483a3.516 3.516 0 0 1-7.032 0V9.423c0-2.9 2.373-5.274 5.274-5.274h10.55Zm-9.67 4.395h1.759v1.758h1.758v1.758H9.363v1.759H7.604V12.06H5.846v-1.758h1.758V8.544Zm7.033 0h1.758v1.758h-1.758V8.544Zm3.517 5.275V12.06h-1.759v1.759h1.759Z" clip-rule="evenodd"/></svg>
